!!!SOCIAL_FUNCTION:	songs with contests of medicine after potlatch
!!!PDT:	1939
!!!OTL: No_24_Song_Concerning_a_Man's_Tumanos.krn
!!!LANG: Non-Tone
!!!LING_GROUP: Wakashan
!!!REG: Pacific Northwest
**kern
*staff1
=1-
*clefF4
*k[b-e-]
*M2/4
[2B-\
=2
4B-\]
4G\
=3
2B-\
=4
12B-\L
12G\
12F\J
8r
16r
16B-\
=5
4B-\
8.G\L
16G\Jk
=6||
*M3/4
4B-\
4G\
8F\
8r
=7||
*M2/4
4B-\
12c\L
12B-\
[12G\J
=8
4G\]
4F\
=9||
*M3/4
8B-\L
8B-\J
8F\
8r
8.B-\L
16F\Jk
=10||
*M2/4
4G\
4F\
=11
4C/
8.F/L
16C/Jk
=12
4D\
4C/
=13
8BB-/
8r
8C/L
8C/J
=14
8BB-/L
8BB-/J
8BB-/L
8BB-/J
=15
4BB-/
8.BB-/L
16BB-/Jk
=16
8BB-/
8r
8.F/L
16C/Jk
=17
4D\
4C/
=18
8BB-/
8r
8C/L
8C/J
=19
8BB-/L
8BB-/J
8BB-/L
8BB-/J
=20
4BB-/
8.BB-/L
16BB-/Jk
=21
8BB-/
8r
4r
==
*-
